frontend/public/svg/finance/bill.svg

<svg width="137" height="143" viewBox="0 0 137 143" fill="none" xmlns="http://www.w3.org/2000/svg">
<g clip-path="url(#clip0)">
<path d="M120.6 8.38279C121.049 19.9836 121.245 31.0887 121.955 42.1617C123.465 65.677 126.096 89.1218 126.461 112.709C126.547 118.205 126.461 123.712 126.175 129.2C125.961 131.308 125.43 133.371 124.603 135.32C123.427 138.471 121.297 139.34 118.271 137.852C116.29 136.799 114.386 135.607 112.573 134.285C110.262 132.705 108.019 131.026 105.616 129.296C105.042 129.598 104.487 129.936 103.954 130.306C99.9828 133.427 95.9975 136.528 92.0811 139.716C87.9659 143.063 84.2707 143.102 79.7374 139.166C76.8593 136.666 74.1126 134.015 71.2942 131.446C70.8926 131.08 70.418 130.793 69.8116 130.348C66.3711 132.92 62.9785 135.487 59.5537 138.01C54.5446 141.702 54.477 142.281 47.5428 138.272C43.4938 135.932 39.9089 132.787 35.9328 129.871C31.4881 132.512 26.8005 135.336 22.0762 138.094C16.6489 141.263 12.4333 139.019 11.8609 132.697C11.8209 132.251 11.8301 131.8 11.8242 131.351C11.5853 112.491 11.3482 93.6328 11.1127 74.7743C10.9246 58.9462 10.7537 43.1185 10.6001 27.2911C10.5509 22.1336 10.5929 16.9748 10.5929 11.2713C9.8053 11.2713 8.74859 11.2922 7.69386 11.266C6.12876 11.3266 4.56138 11.2432 3.01156 11.0166C2.21805 10.8453 1.10425 9.93956 1.01893 9.255C0.983044 8.73 1.05878 8.20335 1.24114 7.70979C1.4235 7.21621 1.70835 6.76687 2.07694 6.39135C2.99117 5.75171 4.08208 5.41319 5.19781 5.4227C16.2978 4.91995 27.3994 4.46382 38.5024 4.05427C55.4399 3.41171 72.3759 2.70343 89.3179 2.20527C103.344 1.79375 117.377 1.64551 131.408 1.381C131.632 1.37706 131.857 1.37762 132.081 1.39206C134.812 1.5673 136.522 3.02308 136.413 5.0761C136.308 7.04512 134.729 8.31972 132.094 8.36435C128.414 8.42999 124.73 8.38279 120.6 8.38279ZM116.457 127.932C116.534 126.435 116.62 125.765 116.595 125.099C115.963 108.156 115.413 91.2103 114.651 74.2735C113.839 56.2192 112.184 38.193 113.338 20.0866C113.577 16.3192 113.373 12.5235 113.373 8.28421L18.4132 11.3691C18.9507 50.6516 20.69 89.7506 21.2105 129.207C22.1339 128.748 22.7411 128.494 23.293 128.154C25.4898 126.799 27.5592 125.19 29.8768 124.09C35.0441 121.633 38.5713 121.136 42.7626 125.034C46.1349 128.169 50.4477 130.293 54.2486 132.804C55.81 131.603 56.9934 130.75 58.1131 129.819C60.0985 128.169 62.0564 126.483 64.007 124.791C67.2151 122.01 70.5408 121.614 74.2268 123.655C75.2034 124.21 76.1459 124.824 77.049 125.493C80.1213 127.712 83.1726 129.958 86.3231 132.262C90.2335 129.41 94.0442 126.641 97.8431 123.855C102.178 120.677 105.014 120.574 109.553 123.476C111.69 124.842 113.822 126.227 116.457 127.932Z" fill="black"/>
<path d="M44.3813 79.789C40.4629 79.789 36.5452 79.7968 32.6275 79.7831C31.7337 79.827 30.8377 79.7771 29.9543 79.6341C28.2924 79.2698 27.0894 78.3384 27.0139 76.4718C26.9454 75.6744 27.1854 74.8809 27.6846 74.2554C28.1836 73.6299 28.9037 73.2197 29.6963 73.1094C31.6688 72.7044 33.6661 72.4321 35.6749 72.2929C42.9189 71.6642 50.1649 71.0413 57.4188 70.5339C59.0904 70.4552 60.7652 70.5956 62.4003 70.952C63.1851 71.0918 63.9014 71.4883 64.4369 72.079C64.9724 72.669 65.2969 73.4205 65.3598 74.2153C65.5141 74.9997 65.3885 75.8142 65.0047 76.5158C64.621 77.2174 64.0035 77.7622 63.2595 78.0556C61.1904 78.8642 59.0137 79.365 56.7991 79.5409C52.6708 79.7699 48.5207 79.6065 44.3799 79.6065L44.3813 79.789Z" fill="black"/>
<path d="M34.632 45.3879C33.6212 45.3879 32.6079 45.4332 31.5997 45.3788C29.2192 45.2475 27.7273 44.1048 27.4116 42.2283C27.0835 40.2987 28.3436 38.5089 30.8102 37.9188C33.3228 37.328 35.8703 36.8966 38.4375 36.6272C44.2421 35.9977 50.0546 35.4109 55.8783 35.0086C57.6559 34.8728 59.4416 35.1282 61.11 35.7567C64.1396 36.9736 64.4901 40.2691 61.7814 42.1081C60.2874 43.0867 58.5883 43.7086 56.8156 43.9255C53.2563 44.36 49.6503 44.4046 46.0634 44.616C42.2519 44.8414 38.4407 45.0705 34.63 45.3033L34.632 45.3879Z" fill="black"/>
<path d="M45.8907 88.3541C48.2476 88.3541 50.6091 88.2622 52.9588 88.3908C54.2933 88.4 55.6116 88.6849 56.8312 89.227C57.5374 89.5821 58.1312 90.1262 58.546 90.7996C58.9609 91.4723 59.1806 92.2475 59.1806 93.0383C59.1806 93.8286 58.9609 94.6037 58.546 95.2771C58.1312 95.9499 57.5374 96.494 56.8312 96.8497C55.5059 97.443 54.0721 97.7561 52.6201 97.7686C46.6802 98.0449 40.7358 98.228 34.7913 98.3593C33.3382 98.3967 31.8862 98.249 30.4707 97.9189C28.4721 97.4391 27.2093 95.8409 27.3202 94.099C27.4364 92.2553 28.3572 90.8173 30.2121 90.3999C32.6128 89.8499 35.0431 89.4383 37.4908 89.1666C40.2783 88.8634 43.0907 88.7918 45.892 88.6199L45.8907 88.3541Z" fill="black"/>
<path d="M36.8444 28.5667C34.8288 28.5667 32.8112 28.6166 30.7982 28.545C29.8098 28.5096 28.6271 28.5325 27.8966 28.0147C26.9394 27.3245 26.2229 26.3514 25.8481 25.2324C25.4366 23.8423 26.2032 22.571 27.5336 21.9094C28.4284 21.4533 29.3924 21.1481 30.3867 21.0064C34.9391 20.434 39.4973 19.8906 44.0661 19.4785C45.3709 19.3603 46.9081 19.3563 47.9943 19.9378C49.2078 20.6388 50.1564 21.7203 50.6932 23.0147C51.2747 24.5053 50.3092 26.0287 48.944 26.6437C47.1246 27.4617 45.1961 28.0109 43.2188 28.274C41.1264 28.547 38.9716 28.3357 36.8444 28.3357V28.5667Z" fill="black"/>
<path d="M36.1447 62.1695C34.1199 61.8768 32.6536 61.7823 31.2517 61.4311C29.6764 61.0373 28.5804 59.7903 28.7917 58.2506C28.9525 57.0797 29.7907 55.3587 30.7194 55.0463C35.092 53.5761 39.6292 52.8002 44.2583 53.8648C44.9915 53.9734 45.6626 54.3379 46.153 54.8937C46.6433 55.4495 46.9212 56.1607 46.9375 56.9017C47.0471 57.6981 46.8596 58.507 46.4108 59.174C45.9621 59.841 45.2835 60.3195 44.5044 60.5181C41.5988 61.2886 38.5994 61.7035 36.1447 62.1695Z" fill="black"/>
<path d="M90.3338 44.2295C88.12 43.9308 85.8491 43.8357 83.7179 43.245C82.7242 42.9673 81.3 41.6927 81.3275 40.9143C81.3656 39.8386 82.4715 38.6873 83.353 37.7986C83.8348 37.3129 84.7812 37.2013 85.5425 37.0937C88.2073 36.7183 90.8753 36.335 93.5551 36.1092C97.0481 35.8138 99.8028 37.3956 99.9767 39.6377C100.148 41.8548 97.6795 43.6879 94.0644 43.9518C92.8364 44.0417 91.5966 43.9662 90.362 43.9662L90.3338 44.2295Z" fill="black"/>
<path d="M91.0545 95.7704C89.904 95.6608 88.0144 95.5466 86.1445 95.284C85.4022 95.223 84.7143 94.8705 84.2306 94.3041C83.7475 93.7384 83.5073 93.0039 83.5631 92.2609C83.525 91.5173 83.7685 90.7868 84.2444 90.2138C84.7202 89.6415 85.3943 89.268 86.1327 89.1689C89.7655 88.571 93.418 88.0066 97.0863 87.7375C99.5955 87.5537 101.3 89.0501 101.461 90.962C101.624 92.8995 100.274 94.5877 97.8083 95.0747C95.8445 95.4626 93.8118 95.5026 91.0545 95.7704Z" fill="black"/>
<path d="M90.5115 79.6823C88.6823 79.4198 87.1162 79.2839 85.5942 78.9505C83.9087 78.5803 82.7404 77.4783 82.7063 75.7082C82.6682 74.9081 82.9275 74.1225 83.4342 73.5022C83.9409 72.882 84.6589 72.4711 85.4505 72.349C88.1756 71.7367 90.9335 71.2818 93.7105 70.9885C96.2275 70.7489 98.1119 72.2532 98.4295 74.3358C98.7137 76.1926 97.4162 78.199 95.2036 78.8606C93.6593 79.2353 92.0919 79.5097 90.5115 79.6823Z" fill="black"/>
<path d="M89.0722 60.4097C87.4445 60.2474 85.8352 59.9304 84.2679 59.4627C83.4566 59.168 82.6926 57.9414 82.476 57.0061C82.4078 56.6982 82.4045 56.3792 82.4669 56.07C82.5292 55.7608 82.6559 55.4682 82.839 55.211C83.0215 54.9537 83.2558 54.7377 83.5275 54.5769C83.7986 54.416 84.1011 54.3137 84.4142 54.2769C87.6086 53.7817 90.8345 53.5133 94.0676 53.4736C94.9215 53.5005 95.736 53.839 96.3576 54.4253C96.9798 55.0116 97.3651 55.8051 97.4419 56.6561C97.478 58.1086 96.1764 59.5927 94.1897 60.0003C92.4931 60.2342 90.7846 60.3708 89.0722 60.4097Z" fill="black"/>
</g>
<defs>
<clipPath id="clip0">
<rect width="135.862" height="141.769" fill="white" transform="translate(0.734863 0.953125)"/>
</clipPath>
</defs>
</svg>

<svg xmlns="http://www.w3.org/2000/svg" width="137" height="143" fill="none" viewBox="0 0 137 143"><g fill="#000" clip-path="url(#a)"><path d="M120.6 8.383c.449 11.6.645 22.706 1.355 33.779 1.51 23.515 4.141 46.96 4.506 70.547.086 5.496 0 11.003-.286 16.491a21.1 21.1 0 0 1-1.572 6.12c-1.176 3.151-3.306 4.02-6.332 2.532a48 48 0 0 1-5.698-3.567c-2.311-1.58-4.554-3.259-6.957-4.989q-.862.454-1.662 1.01c-3.971 3.121-7.956 6.222-11.873 9.41-4.115 3.347-7.81 3.386-12.344-.55-2.878-2.5-5.624-5.151-8.443-7.72-.401-.366-.876-.653-1.482-1.098-3.44 2.572-6.834 5.139-10.258 7.662-5.01 3.692-5.077 4.271-12.011.262-4.05-2.34-7.634-5.485-11.61-8.401-4.445 2.641-9.132 5.465-13.857 8.223-5.427 3.169-9.643.925-10.215-5.397-.04-.446-.03-.897-.037-1.346q-.359-28.29-.711-56.577-.283-23.742-.513-47.483c-.05-5.157-.007-10.316-.007-16.02-.788 0-1.844.021-2.9-.005a25.5 25.5 0 0 1-4.681-.25c-.794-.17-1.908-1.076-1.993-1.761a3.73 3.73 0 0 1 1.058-2.864 5.36 5.36 0 0 1 3.12-.968q16.65-.755 33.305-1.369c16.938-.642 33.874-1.35 50.816-1.849 14.026-.411 28.059-.56 42.09-.824a8 8 0 0 1 .673.011c2.731.175 4.441 1.631 4.332 3.684-.105 1.97-1.684 3.244-4.319 3.288-3.68.066-7.364.019-11.494.019m-4.143 119.549c.077-1.497.163-2.167.138-2.833-.632-16.943-1.182-33.889-1.944-50.826-.812-18.054-2.467-36.08-1.313-54.186.239-3.768.035-7.563.035-11.803l-94.96 3.085c.538 39.283 2.277 78.382 2.797 117.838.924-.459 1.531-.713 2.083-1.053 2.197-1.355 4.266-2.964 6.584-4.064 5.167-2.457 8.694-2.954 12.886.944 3.372 3.135 7.685 5.259 11.486 7.77 1.561-1.201 2.744-2.054 3.864-2.985a367 367 0 0 0 5.894-5.028c3.208-2.781 6.534-3.177 10.22-1.136q1.466.833 2.822 1.838c3.072 2.219 6.124 4.465 9.274 6.769 3.91-2.852 7.721-5.621 11.52-8.407 4.335-3.178 7.171-3.281 11.71-.379 2.137 1.366 4.269 2.751 6.904 4.456"/><path d="M44.381 79.789c-3.918 0-7.836.008-11.754-.006a12.8 12.8 0 0 1-2.673-.149c-1.662-.364-2.865-1.296-2.94-3.162a3.125 3.125 0 0 1 2.682-3.363 45 45 0 0 1 5.979-.816c7.244-.629 14.49-1.252 21.744-1.76a19.2 19.2 0 0 1 4.981.419 3.6 3.6 0 0 1 2.96 3.263 3.42 3.42 0 0 1-2.1 3.84 22.7 22.7 0 0 1-6.46 1.486c-4.13.229-8.28.066-12.42.066zm-9.749-34.401c-1.01 0-2.024.045-3.032-.01-2.38-.13-3.873-1.273-4.188-3.15-.328-1.93.932-3.72 3.398-4.31a61 61 0 0 1 7.628-1.29c5.804-.63 11.617-1.217 17.44-1.62 1.778-.135 3.564.12 5.232.749 3.03 1.217 3.38 4.512.671 6.351a11.64 11.64 0 0 1-4.965 1.818c-3.56.434-7.166.479-10.753.69q-5.716.338-11.433.687zM45.89 88.354c2.358 0 4.72-.092 7.069.037a9.7 9.7 0 0 1 3.872.836 4.26 4.26 0 0 1 2.35 3.811 4.27 4.27 0 0 1-2.35 3.812 10.5 10.5 0 0 1-4.21.919c-5.94.276-11.885.459-17.83.59a17 17 0 0 1-4.32-.44c-1.999-.48-3.262-2.078-3.15-3.82.115-1.844 1.036-3.282 2.891-3.7a64 64 0 0 1 7.279-1.232c2.787-.304 5.6-.375 8.401-.547zm-9.046-59.787c-2.015 0-4.033.05-6.046-.022-.988-.035-2.17-.013-2.901-.53a5.64 5.64 0 0 1-2.049-2.783c-.411-1.39.355-2.661 1.686-3.323a9.1 9.1 0 0 1 2.853-.903c4.552-.572 9.11-1.115 13.68-1.527 1.304-.119 2.841-.123 3.927.459a6.37 6.37 0 0 1 2.7 3.077c.58 1.49-.385 3.014-1.75 3.629a20.6 20.6 0 0 1-5.725 1.63c-2.093.273-4.247.062-6.375.062zm-.699 33.603c-2.025-.293-3.491-.388-4.893-.739-1.576-.394-2.672-1.64-2.46-3.18.16-1.171.999-2.892 1.927-3.205 4.373-1.47 8.91-2.246 13.54-1.181a3.14 3.14 0 0 1 2.678 3.037 3.27 3.27 0 0 1-2.433 3.616c-2.905.77-5.905 1.185-8.36 1.651m54.19-17.939c-2.214-.3-4.485-.394-6.616-.985-.994-.278-2.418-1.552-2.39-2.33.038-1.076 1.144-2.228 2.025-3.116.482-.486 1.428-.598 2.19-.705 2.664-.376 5.332-.759 8.012-.985 3.493-.295 6.248 1.287 6.422 3.529.171 2.217-2.297 4.05-5.913 4.314-1.228.09-2.467.014-3.702.014zm.721 51.54c-1.151-.11-3.04-.223-4.91-.486a2.82 2.82 0 0 1-2.582-3.023 2.967 2.967 0 0 1 2.57-3.092c3.633-.598 7.285-1.162 10.953-1.431 2.51-.184 4.214 1.312 4.375 3.224.163 1.938-1.187 3.626-3.653 4.113-1.964.388-3.996.428-6.754.695m-.542-16.088c-1.83-.262-3.396-.398-4.918-.731-1.685-.37-2.854-1.473-2.888-3.243a3.243 3.243 0 0 1 2.745-3.359 72 72 0 0 1 8.26-1.36c2.517-.24 4.4 1.264 4.719 3.347.284 1.857-1.014 3.863-3.226 4.525a37 37 0 0 1-4.692.821m-1.44-19.272a25.7 25.7 0 0 1-4.804-.947c-.811-.295-1.575-1.522-1.792-2.457a2.26 2.26 0 0 1 .363-1.795 2.25 2.25 0 0 1 1.575-.934 68.5 68.5 0 0 1 9.654-.803 3.5 3.5 0 0 1 3.374 3.182c.036 1.453-1.266 2.937-3.252 3.344q-2.547.35-5.118.41"/></g><defs><clipPath id="a"><path fill="#fff" d="M.735.953h135.862v141.77H.735z"/></clipPath></defs></svg>
